X:1
T: Birnam Wood
C:John Gow
R:Strathspey
Q:128
K:D
M:4/4
L:1/16
|:A2|defe d3A d3B AGFE|DFAB defd e3d B2e2|defe d3A d4 A3g|gfed Bgfe f2d2 d2A2|
defe d3A d3B AGFE|DFAB defd e3d B2e2|defe d3A d4 A3g|gfed Bgfe f2d2 d4|
A,DFD GDFD BDFD ADFA|dcdA GFED B,2E2 E2DB,|A,DFD GDFD BDFD ADFA|dfBd FAGB, A,2D2 D2DC1/2B,1/2|
A,DFD GDFD BDFD ADFA|dcdA GFED B,2E2 E2FE|DAFd Afda fd'af gecA|BGdB cAge f2d2 d2:|
